icons/lock.svg

<svg xmlns="http://www.w3.org/2000/svg" width="24" height="24" viewBox="0 0 24 24">
  <path d="M12,1 C14.6887547,1 16.8818181,3.12230671 16.9953805,5.78311038 L17,6 L17,8 L18,8 C19.1045695,8 20,8.8954305 20,10 L20,20 C20,21.1045695 19.1045695,22 18,22 L6,22 C4.8954305,22 4,21.1045695 4,20 L4,10 C4,8.8954305 4.8954305,8 6,8 L7,8 L7,6 C7,3.23857625 9.23857625,1 12,1 Z M12,11 C10.8954305,11 10,11.8954305 10,13 C10,13.7402524 10.4021661,14.3865739 10.9999275,14.7323937 L10.9999275,14.7323937 L11,18 C11,18.5522847 11.4477153,19 12,19 C12.5522847,19 13,18.5522847 13,18 L13,18 L13.0010775,14.7318119 C13.5982846,14.3858493 14,13.7398375 14,13 C14,11.8954305 13.1045695,11 12,11 Z M12,3 C10.4023191,3 9.09633912,4.24891996 9.00509269,5.82372721 L9,6 L9,8 L15,8 L15,6 C15,4.34314575 13.6568542,3 12,3 Z"/>
</svg>

<svg xmlns="http://www.w3.org/2000/svg" viewBox="0 0 24 24">
  <path d="M12 1a5 5 0 0 1 5 4.78V8h1a2 2 0 0 1 2 2v10a2 2 0 0 1-2 2H6a2 2 0 0 1-2-2V10c0-1.1.9-2 2-2h1V6a5 5 0 0 1 5-5zm0 10a2 2 0 0 0-1 3.73V18a1 1 0 0 0 2 0v-3.27A2 2 0 0 0 12 11zm0-8a3 3 0 0 0-3 2.82V8h6V6a3 3 0 0 0-3-3z"/>
</svg>
